X:185
T: Grand Spey
N: title "Graf Spee" on CD
R: reel
S: "Ace and Deuce" (C.McCarthy, A.McCormack, E.O Donoghue)
Z: B.Black
M: 4/4
L: 1/8
K: C
D|EDCD EG G2|AGcG AGcG|EDCD EG G2|AGcG ED D2|
EDCD EG G2|AGcG AGcG|EDCD EG G2|AGcG ED D2||
efed c3A|GEEE GAcd|efed c3A|GECD ED D2|
efed c3A|GEEE GAcd|eaag e3d|cAGE ED D2||
egge c3d|eaa^g a3=g|eged cBcd|eaag ed d2|
egge c3d|eaa^g a3=g|eged cBcd|eaag ed d2||
eccB cAGE|C2 EG cAGE|GAcd edcA|GEcE ED D2|
eccB cAGE|C2 EG cAGE|GAcd edcA|GEcE ED D2||
eg c2 eg c2|fa d2 fa d2|eg c2 eg c2|ABcd ed d2|
a3e gedg|e3d cAGE|GAcd edcA|GEcE ED D2||
